src/assets/Logos/Partners/CanadianTire.svg

<svg xmlns="http://www.w3.org/2000/svg" xml:space="preserve" id="layer" x="0" y="0" style="enable-background:new 0 0 652 652" version="1.1" viewBox="0 0 652 652"><style>.st0{fill:#fff}</style><path d="M623.6 127.5H409l10.8-28.2-30 7.2-9.8-18.3-18.2 21.4 11.4-53.3-26 15.7-19.6-36.9L308.2 72 282 56.5l11.2 52.9-18.1-21.3-10 18.4-29.9-7.7s7 18.5 10.8 28.6H30.4C13.9 127.4.5 141.1.5 158c0 6.1 1.8 12 5.4 17.4L303 594.8c5.6 8 14.9 12.7 24.8 12.7 9.8 0 18.9-4.6 25-12.7l295.9-420.7c3.1-4.7 4.7-10.2 4.7-16 .1-15.1-11.1-30.6-29.8-30.6" class="st0"/><path d="M623.6 144.6H417l2.2 2.3-42.6 33.7c0 .1 13.6 24 13.6 24l-51.4-8.5v17.5l-22.6-.2v-17.3l-51.3 8.5 13.3-23.5c.1-.2.1-.3.2-.5l-42.6-33.8 2.2-2.3H30.4c-7.7 0-12.7 6.6-12.7 13.5 0 2.5.7 5.2 2.3 7.6l297 419.3c2.6 3.7 6.8 5.4 10.9 5.4s8.2-1.8 11-5.4l295.6-420.4c1.3-1.9 1.8-4.4 1.8-6.6 0-6.2-4.4-13.3-12.7-13.3" style="fill:#ee2524"/><path d="M372.5 175.5c-3.1 1.8-3 5.7-1.3 8.6l6.8 11.8-41.9-6.9c-2.9-.5-3.7.5-3.7 3v15.1l-9.6-.1v-15c.1-2.3-.5-3.4-3.3-3l-42.2 7 6.6-11.8c1.7-2.9 1.7-6.8-1.4-8.7l-37-29.3 7.4-7.7c2.1-1.6 2.6-4.9 1.3-8.1l-8.4-22.1 18.3 4.7c3 1 5.7-1.1 6.9-3.3l5.4-10.1 19.2 22.7c4 4.1 7.2 2.3 6.1-3.9l-10.3-48.7 14.2 8.5c2.7 1.5 6.2 1 7.4-1.6l14.5-27.5L342 76.5c1.3 2.6 4.6 3.4 7.3 1.8l14.3-8.6-10.5 48.7c-1.1 6.2 2.3 7.9 6.3 3.8l19.1-22.4 5.6 10.5c1.3 2.3 4 3.5 7 2.6l18-4.4-8.6 22.3c-1.4 3.3-.6 6.1 1.5 7.7l7.3 7.7-36.8 29.3z" style="fill:#0fa557"/><path d="M623.6 127.4H409l10.8-28.2-30 7.2-9.8-18.3-18.2 21.4 11.4-53.3-26 15.7L327.7 35l-19.5 36.9-26.1-15.6 11.2 52.9-18.1-21.3-10.1 18.7-29.9-7.7s7 18.5 10.8 28.6H30.4C13.9 127.5.5 141.2.5 158.1c0 6.1 1.8 12 5.4 17.4L303 594.8c5.6 8 14.9 12.7 24.8 12.7 9.8 0 18.9-4.6 25-12.7l295.9-420.7c3.1-4.7 4.7-10.2 4.7-16 .1-15.1-11.1-30.6-29.8-30.7M264.2 113c3 1 5.7-1.1 6.9-3.3l5.4-10.1 19.2 22.7c4 4.1 7.2 2.3 6.1-3.9l-10.3-48.7 14.2 8.5c2.7 1.5 6.2 1 7.4-1.6l14.5-27.5 14.5 27.4c1.3 2.6 4.6 3.4 7.3 1.8l14.3-8.6-10.5 48.7c-1.1 6.2 2.3 7.9 6.3 3.8l19.1-22.4 5.6 10.5c1.3 2.3 3.9 3.5 7 2.6l18-4.4-8.6 22.3c-1.4 3.3-.6 6.1 1.5 7.7l7.3 7.7-37.2 29.3c-3.1 1.8-3 5.7-1.3 8.6l6.8 11.8-41.9-6.9c-2.9-.5-3.7.5-3.7 3v15.1l-9.6-.1v-15c.1-2.3-.5-3.4-3.3-3l-42.2 7 6.6-11.8c1.7-2.9 1.7-6.9-1.4-8.7l-37-29.3 7.4-7.7c2.2-1.6 2.6-4.9 1.3-8.1l-8.4-22.1 18.7 4.7zm377.5 56.4L346 589.9c-4.4 5.8-10.9 9-18.1 9s-13.9-3.3-18-9l-297-419.5c-2.5-3.8-3.8-8.1-3.8-12.5 0-12.1 9.6-22.1 21.4-22.1h215.8l-10.5 10.9 42.6 33.8c-.1.1-.1.2-.2.5l-13.3 23.5 51.3-8.5v17.4l22.6.2v-17.5l51.4 8.5s-13.6-23.9-13.6-24l42.6-33.7-10.6-10.9h214.9c13.4 0 21.4 11.2 21.4 22.1.1 4.1-1 8-3.2 11.3" class="st0"/></svg>

<svg width="652" height="652" viewBox="0 0 652 652" fill="none" xmlns="http://www.w3.org/2000/svg">
<g clip-path="url(#clip0_328_5)">
<mask id="mask0_328_5" style="mask-type:alpha" maskUnits="userSpaceOnUse" x="0" y="35" width="654" height="573">
<path d="M623.6 127.5H409L419.8 99.3001L389.8 106.5L380 88.2001L361.8 109.6L373.2 56.3001L347.2 72.0001L327.6 35.1001L308.2 72.0001L282 56.5001L293.2 109.4L275.1 88.1001L265.1 106.5L235.2 98.8001C235.2 98.8001 242.2 117.3 246 127.4H30.4C13.9 127.4 0.5 141.1 0.5 158C0.5 164.1 2.3 170 5.9 175.4L303 594.8C308.6 602.8 317.9 607.5 327.8 607.5C337.6 607.5 346.7 602.9 352.8 594.8L648.7 174.1C651.8 169.4 653.4 163.9 653.4 158.1C653.5 143 642.3 127.5 623.6 127.5Z" fill="white"/>
</mask>
<g mask="url(#mask0_328_5)">
<path d="M623.6 144.6H417L419.2 146.9L376.6 180.6C376.6 180.7 390.2 204.6 390.2 204.6L338.8 196.1V213.6L316.2 213.4V196.1L264.9 204.6L278.2 181.1C278.3 180.9 278.3 180.8 278.4 180.6L235.8 146.8L238 144.5H30.4002C22.7002 144.5 17.7002 151.1 17.7002 158C17.7002 160.5 18.4002 163.2 20.0002 165.6L317 584.9C319.6 588.6 323.8 590.3 327.9 590.3C332 590.3 336.1 588.5 338.9 584.9L634.5 164.5C635.8 162.6 636.3 160.1 636.3 157.9C636.3 151.7 631.9 144.6 623.6 144.6Z" fill="white"/>
</g>
<path d="M623.6 127.4H409L419.8 99.2L389.8 106.4L380 88.1L361.8 109.5L373.2 56.2L347.2 71.9L327.7 35L308.2 71.9L282.1 56.3L293.3 109.2L275.2 87.9L265.1 106.6L235.2 98.9C235.2 98.9 242.2 117.4 246 127.5H30.4C13.9 127.5 0.5 141.2 0.5 158.1C0.5 164.2 2.3 170.1 5.9 175.5L303 594.8C308.6 602.8 317.9 607.5 327.8 607.5C337.6 607.5 346.7 602.9 352.8 594.8L648.7 174.1C651.8 169.4 653.4 163.9 653.4 158.1C653.5 143 642.3 127.5 623.6 127.4ZM264.2 113C267.2 114 269.9 111.9 271.1 109.7L276.5 99.6L295.7 122.3C299.7 126.4 302.9 124.6 301.8 118.4L291.5 69.7L305.7 78.2C308.4 79.7 311.9 79.2 313.1 76.6L327.6 49.1L342.1 76.5C343.4 79.1 346.7 79.9 349.4 78.3L363.7 69.7L353.2 118.4C352.1 124.6 355.5 126.3 359.5 122.2L378.6 99.8L384.2 110.3C385.5 112.6 388.1 113.8 391.2 112.9L409.2 108.5L400.6 130.8C399.2 134.1 400 136.9 402.1 138.5L409.4 146.2L372.2 175.5C369.1 177.3 369.2 181.2 370.9 184.1L377.7 195.9L335.8 189C332.9 188.5 332.1 189.5 332.1 192V207.1L322.5 207V192C322.6 189.7 322 188.6 319.2 189L277 196L283.6 184.2C285.3 181.3 285.3 177.3 282.2 175.5L245.2 146.2L252.6 138.5C254.8 136.9 255.2 133.6 253.9 130.4L245.5 108.3L264.2 113ZM641.7 169.4L346 589.9C341.6 595.7 335.1 598.9 327.9 598.9C320.7 598.9 314 595.6 309.9 589.9L12.9 170.4C10.4 166.6 9.1 162.3 9.1 157.9C9.1 145.8 18.7 135.8 30.5 135.8H246.3L235.8 146.7L278.4 180.5C278.3 180.6 278.3 180.7 278.2 181L264.9 204.5L316.2 196V213.4L338.8 213.6V196.1L390.2 204.6C390.2 204.6 376.6 180.7 376.6 180.6L419.2 146.9L408.6 136H623.5C636.9 136 644.9 147.2 644.9 158.1C645 162.2 643.9 166.1 641.7 169.4Z" fill="white"/>
</g>
<defs>
<clipPath id="clip0_328_5">
<rect width="652" height="652" fill="white"/>
</clipPath>
</defs>
</svg>
